X:111
T:Devil’s Dream,The TS.111
T:Devil among the Tailors,aka TS.111
M:C
L:1/8
Q:1/2=100
S:Thomas Sands’ MS,1810,Lincolnshire
R:reel
O:England;Lincolnshire
Z:vmp.Ruairidh Greig, 2011
K:A
eaga eaga|eaga fedc|dfBf dfBf|dfBf gfed|
caga eaga|eaga fedc|fedc dcBA|E2G2A4:|
|:ceAe ceAe|ceAe fedc|dfBf dfBf|dfBf gfed|
ceAe ceAe|ceAe fedc|fedc dcBA|E2G2A4:|]

